X: 6249
T: Carolan's Concerto
R: reel
M: 4/4
K: Dmajor
|:"D" d2dd "G" d2cB|"A" ABGA "D" F2AA|"A" E2AA "D" D2A2|"Em" Bcde "A"dcBA|
"D" d2a2 "D/C#" fgaf|"D/B" efge "A" fgaf|"G" gabg "D/F#" fdfa|"Em" gfed "A" dcBA|
"G" BdBd gdgd|"D/F#" AdAd fA [f2A]|"Em "GBGB efed|"A" cd Bc AAA G|
"D" FGAF "Em" EFGE|"D/F#" FGAF "G" GABG|"D" AFAd "A" fedc|"D" d2 "G" dd "D" d2 z:|
[Ad|"G" d2b2 "A" agfe|"D" d2a2 "A" c2a2|"G" B2 gg "A" ABcd|ecBA "D" d2 df|
"D" edcB "A" caaa|"G" Bggg "D/F#" Afff|"Em" edcB "A"caaa|"G"Bggg bgbg|
"D/F#" afaf "Em" edcB|"A" cABG AFGE|"D" DAFA DAFA|"Em" GEBE GEBE|
"D/F#" FAdc BAGF|"G" EFGA Bcde|"D" AFAd "A" fedc|"D" d2 "G" dd "D" d2 z:|

